public/topics/11.svg

<svg width="250" height="250" viewBox="0 0 250 250" fill="none" xmlns="http://www.w3.org/2000/svg">
<rect width="250" height="250" rx="30" fill="#CC0099"/>
<path d="M94.6 89.8C93.2667 115.933 92.6 136.733 92.6 152.2C92.6 160.2 92.8 167.8 93.2 175C94.2667 175.8 96.3333 176.2 99.4 176.2L104 176C105.867 175.733 107.6 175.6 109.2 175.6C112.667 175.6 115.333 176.2 117.2 177.4C119.2 178.6 120.2 180.933 120.2 184.4C120.2 187.733 119.2 190.333 117.2 192.2C115.333 194.067 111.4 195 105.4 195C100.333 195 94.2 194.6 87 193.8C85.2667 193.667 83.6 193.533 82 193.4C80.4 193.267 78.9333 193.2 77.6 193.2C70.2667 193.333 64.8 193.6 61.2 194C57.6 194.4 53.5333 194.6 49 194.6C44.8667 194.6 42.8 191.467 42.8 185.2C42.8 179.2 46.6667 176.2 54.4 176.2C55.6 176.2 57.5333 176.333 60.2 176.6C62.4667 177 64.8667 177.2 67.4 177.2C68.8667 177.2 70.0667 177.133 71 177C71.1333 168.067 71.6 155.067 72.4 138C73.2 118 73.6 103.2 73.6 93.6C72.9333 93.7333 70.6 94.6667 66.6 96.4C60.4667 99.4667 55.9333 101 53 101C51.4 101 49.9333 100.2 48.6 98.6C47.2667 96.8667 46.6 94.8667 46.6 92.6C46.6 90.3333 48 88.1333 50.8 86C53.6 83.8667 58.1333 81.0667 64.4 77.6C67.8667 75.8667 71.2 73.9333 74.4 71.8C75.2 71.2667 76.3333 70.7333 77.8 70.2C79.4 69.6667 80.6 69.4 81.4 69.4C84.8667 69.4 88 70.1333 90.8 71.6C93.7333 72.9333 95.2 74.7333 95.2 77L94.6 89.8ZM187.373 89.8C186.04 115.933 185.373 136.733 185.373 152.2C185.373 160.2 185.573 167.8 185.973 175C187.04 175.8 189.107 176.2 192.173 176.2L196.773 176C198.64 175.733 200.373 175.6 201.973 175.6C205.44 175.6 208.107 176.2 209.973 177.4C211.973 178.6 212.973 180.933 212.973 184.4C212.973 187.733 211.973 190.333 209.973 192.2C208.107 194.067 204.173 195 198.173 195C193.107 195 186.973 194.6 179.773 193.8C178.04 193.667 176.373 193.533 174.773 193.4C173.173 193.267 171.707 193.2 170.373 193.2C163.04 193.333 157.573 193.6 153.973 194C150.373 194.4 146.307 194.6 141.773 194.6C137.64 194.6 135.573 191.467 135.573 185.2C135.573 179.2 139.44 176.2 147.173 176.2C148.373 176.2 150.307 176.333 152.973 176.6C155.24 177 157.64 177.2 160.173 177.2C161.64 177.2 162.84 177.133 163.773 177C163.907 168.067 164.373 155.067 165.173 138C165.973 118 166.373 103.2 166.373 93.6C165.707 93.7333 163.373 94.6667 159.373 96.4C153.24 99.4667 148.707 101 145.773 101C144.173 101 142.707 100.2 141.373 98.6C140.04 96.8667 139.373 94.8667 139.373 92.6C139.373 90.3333 140.773 88.1333 143.573 86C146.373 83.8667 150.907 81.0667 157.173 77.6C160.64 75.8667 163.973 73.9333 167.173 71.8C167.973 71.2667 169.107 70.7333 170.573 70.2C172.173 69.6667 173.373 69.4 174.173 69.4C177.64 69.4 180.773 70.1333 183.573 71.6C186.507 72.9333 187.973 74.7333 187.973 77L187.373 89.8Z" fill="white"/>
</svg>

<svg xmlns="http://www.w3.org/2000/svg" width="250" height="250" fill="none" viewBox="0 0 250 250"><rect width="250" height="250" fill="#c09" rx="30"/><path fill="#fff" d="M94.6 89.8q-2 39.2-2 62.4 0 12 .6 22.8 1.6 1.2 6.2 1.2l4.6-.2q2.8-.4 5.2-.4 5.2 0 8 1.8 3 1.8 3 7 0 5-3 7.8-2.8 2.8-11.8 2.8-7.6 0-18.4-1.2a789 789 0 0 1-5-.4 54 54 0 0 0-4.4-.2q-11 .2-16.4.8t-12.2.6q-6.2 0-6.2-9.4 0-9 11.6-9 1.8 0 5.8.4 3.4.6 7.2.6 2.2 0 3.6-.2.2-13.4 1.4-39 1.2-30 1.2-44.4-1 .2-7 2.8Q57.4 101 53 101q-2.4 0-4.4-2.4-2-2.6-2-6t4.2-6.6 13.6-8.4a93 93 0 0 0 10-5.8q1.2-.8 3.4-1.6 2.4-.8 3.6-.8 5.2 0 9.4 2.2 4.4 2 4.4 5.4zm92.773 0q-2 39.2-2 62.4 0 12 .6 22.8 1.6 1.2 6.2 1.2l4.6-.2q2.8-.4 5.2-.4 5.2 0 8 1.8 3 1.8 3 7 0 5-3 7.8-2.8 2.8-11.8 2.8-7.6 0-18.4-1.2a790 790 0 0 1-5-.4q-2.4-.2-4.4-.2-11 .2-16.4.8t-12.2.6q-6.2 0-6.2-9.4 0-9 11.6-9 1.8 0 5.8.4 3.4.6 7.2.6 2.2 0 3.6-.2.2-13.4 1.4-39 1.2-30 1.2-44.4-1 .2-7 2.8-9.2 4.6-13.6 4.6-2.4 0-4.4-2.4-2-2.6-2-6t4.2-6.6 13.6-8.4a93 93 0 0 0 10-5.8q1.2-.8 3.4-1.6 2.4-.8 3.6-.8 5.2 0 9.4 2.2 4.4 2 4.4 5.4z"/></svg>
